X: 1
T: String Quartet in E\b Major opus 1 no 0 mvt 2
C: Franz Joseph Haydn
%%abc-version 2.0
%%abcx-abcm2ps-target-version 5.9.1 (29 Sep 2008)
%%abc-creator hum2abc beta
%%abcx-conversion-date 2021/02/14 14:38:22
%%abc-copyright Copyright (c) 1994, 2000 Center for Computer Assisted Research in the Humanities
%%abc-edited-by Frances Bennion
%%abcx-initial-encoding-date 1997/04/15
%%gracespace 0 6 6
%%humdrum-veritas 457720484
%%humdrum-veritas-data 2187287055
%%linebreak <none>
%%barnumbers 0
L: 1/4
M: 3/4
N: Derived from op01n0-02.krn
Q: "Menuetto I"
%%staves [1 2 3 4]
V: 1
V: 2
V: 3 clef=alto
V: 4 clef=bass
K: Eb
[V:1][G,2E2] F//D3// [I:setbarnb2] |
[V:2][E2G,2] B, |
[V:3]E,2 z |
[V:4]E,2 z |
[V:1][E2G,2] F//D3// |
[V:2][G,2E2] B, |
[V:3]E,2 z |
[V:4]E,2 z |
[V:1]E/<G/ F/<A/ D//F3// |
[V:2]E B, D |
[V:3]z z B, |
[V:4]z z B, |
[V:1]E/<G/ F z |
[V:2]E D z |
[V:3]E B, z |
[V:4]E, B,, z |
[V:1][B,2F2] A//F3// |
[V:2][B,2F2] B, |
[V:3]D2 z |
[V:4]B,,2 z |
[V:1]E/<G/ F/<A/ F//D3// |
[V:2]E B, B, |
[V:3]z z A, |
[V:4]z z A,, |
[V:1]E/<B,/ G F |
[V:2]B, E D |
[V:3]G,/>A,/ B, B, |
[V:4]G,,/>A,,/ B,, B,, |
[V:1]E2 z |
[V:2]E2 z |
[V:3]E B, E, |
[V:4]E, B,, E,, |
[V:1]B2 G//E3// |
[V:2]G2 E |
[V:3]E2 G |
[V:4]E,2 G, |
[V:1]D/<G/ F z |
[V:2]B,/<E/ D z |
[V:3]B z2 |
[V:4]B, z2 |
[V:1]e c/<=A/ F//E3// |
[V:2]=A,2 C |
[V:3]F2 =A |
[V:4]F,2 =A, |
[V:1]D/<G/ F z |
[V:2]B,/<E/ D z |
[V:3]B z2 |
[V:4]B, z2 |
[V:1]f2 d//B3// |
[V:2]d2 B//F3// |
[V:3]B,2 D |
[V:4]B,,2 D, |
[V:1]=A/<e/ c/<A/ F//E3// |
[V:2]E2 C |
[V:3]F2 =A |
[V:4]F,2 =A, |
[V:1]D B =A |
[V:2]B, B =A |
[V:3]B D F |
[V:4]B, D, F, |
[V:1]B2 z |
[V:2]B2 z |
[V:3]B, B z |
[V:4]B,, B, z |
[V:1]=E3 |
[V:2]C/<B,/ C/<B,/ C//B,3// |
[V:3]G,3 |
[V:4]C,3 |
[V:1]F/<A/ A,/<C/ F//A3// |
[V:2]A, z2 |
[V:3]A, z2 |
[V:4]F,, z2 |
[V:1]D3 |
[V:2]B,/<A,/ B,/<A,/ B,//A,3// |
[V:3]F,3 |
[V:4]B,,3 |
[V:1]E/<G/ G,/<B,/ E//G3// |
[V:2]G, z2 |
[V:3]G, z2 |
[V:4]E,, z2 |
[V:1]B A G |
[V:2]G F E |
[V:3]E z E |
[V:4]E, z E, |
[V:1]F2 z |
[V:2]D2 z |
[V:3]B B,/A,/ G,/F,/ |
[V:4]B, B,/A,/ G,/F,/ |
[V:1][G,2E2] F//D3// |
[V:2][G,2E2] B, |
[V:3]E,2 z |
[V:4]E,2 z |
[V:1][E2G,2] F//D3// |
[V:2][E2G,2] B, |
[V:3]E,2 z |
[V:4]E,2 z |
[V:1]E/<G/ F/<A/ D//F3// |
[V:2]E B, D |
[V:3]z z B, |
[V:4]z z B, |
[V:1]E/<G/ F z |
[V:2]E D z |
[V:3]E B, z |
[V:4]E, B,, z |
[V:1][B,2F2] A//D3// |
[V:2][B,2F2] B, |
[V:3]D2 z |
[V:4]B,,2 z |
[V:1]E/<G/ F/<A/ F//D3// |
[V:2]E B, B, |
[V:3]z z A, |
[V:4]z z A,, |
[V:1]E/<B,/ G F |
[V:2]B, E D |
[V:3]G,/>A,/ B, B, |
[V:4]G,,/>A,,/ B,, B,, |
[V:1]E2 z |
[V:2]E2 z |
[V:3]E B, E, |
[V:4]E, B,, E,, |
[V:1]c3 |
[V:2]z C/D/ E/^F/ |
[V:3]z C A, |
[V:4]z C, A,, |
[V:1]=B G/^F/ G/=A/ |
[V:2]G z2 |
[V:3]G, z2 |
[V:4]G,, z2 |
[V:1]B3 |
[V:2]z B,/C/ _D/=E/ |
[V:3]z B G |
[V:4]z B, G, |
[V:1]=A F/=E/ F/G/ |
[V:2]F z2 |
[V:3]F z2 |
[V:4]F, z2 |
[V:1]A3 |
[V:2]z A,/B,/ C/D/ |
[V:3]z A F |
[V:4]z A, F, |
[V:1]G E/F/ G/A/ |
[V:2]E z2 |
[V:3]E z2 |
[V:4]E, z2 |
[V:1]B3- |
[V:2]z D/E/ F/G/ |
[V:3]z B,/C/ D/E/ |
[V:4]z B,,/C,/ D,/E,/ |
[V:1]B3 |
[V:2]A B,/C/ D/E/ |
[V:3]F D/E/ F/G/ |
[V:4]F, D,/E,/ F,/G,/ |
[V:1]B B/c/ d/e/ |
[V:2]F z B,/C/ |
[V:3]A z2 |
[V:4]A, z2 |
[V:1]f/g/ a/f/ e/d/ |
[V:2]D/E/ F/A/ G/F/ |
[V:3]z3 |
[V:4]z3 |
[V:1]e G F |
[V:2]E E D |
[V:3]G/>A/ B B, |
[V:4]G,/>A,/ B, B,, |
[V:1]E2 z |
[V:2]E2 z |
[V:3]E B, E, |
[V:4]E, B,, E,, |
[V:1]b3 |
[V:2]z3 |
[V:3]z G/A/ B/c/ |
[V:4]z3 |
[V:1]b a/g/ f/=e/ |
[V:2]z3 |
[V:3]_d c/B/ A/G/ |
[V:4]z3 |
[V:1]f3 |
[V:2]F E/_D/ C/B,/ |
[V:3]F3 |
[V:4]z3 |
[V:1]f e/_d/ c/B/ |
[V:2]A, B, C |
[V:3]F3 |
[V:4]z3 |
[V:1]A F/G/ A/=B/ |
[V:2]_D3 |
[V:3]F3 |
[V:4]z3 |
[V:1]c C z |
[V:2]C z2 |
[V:3]=E C/D/ E/F/ |
[V:4]z3 |
[V:1]_d c/B/ A/G/ |
[V:2]=E3 |
[V:3]G2 B, |
[V:4]B,,3 |
[V:1]F/G/ A/B/ c/d/ |
[V:2]F3 |
[V:3]A,3 |
[V:4]A,,3 |
[V:1]e d/c/ =B/c/ |
[V:2]^F3 |
[V:3]C2 A, |
[V:4]A,,3 |
[V:1]G z2 |
[V:2]G z2 |
[V:3]G, G/F/ E/D/ |
[V:4]G,, G,/F,/ E,/D,/ |
[V:1]z c/d/ e/f/ |
[V:2]E3 |
[V:3]C z2 |
[V:4]C,3 |
[V:1]g/^f/ g/f/ g |
[V:2]D3 |
[V:3]z d/c/ =B/=A/ |
[V:4]=B,,3 |
[V:1]z B/c/ _d/=e/ |
[V:2]_D3 |
[V:3]G z2 |
[V:4]B,,3 |
[V:1]f/=e/ f/e/ f |
[V:2]C3 |
[V:3]z c/B/ =A/G/ |
[V:4]=A,,3 |
[V:1]z A/B/ c/d/ |
[V:2]C3 |
[V:3]F z2 |
[V:4]A,,3 |
[V:1]e/d/ e/d/ e |
[V:2]B,3 |
[V:3]z B/A/ G/F/ |
[V:4]G,,3 |
[V:1]e d/c/ =B/c/ |
[V:2]=A,2 C |
[V:3]E3 |
[V:4]^F,,3 |
[V:1]=B/A/ G/F/ E/D/ |
[V:2]D/F/ E/D/ C/=B,/ |
[V:3]D z2 |
[V:4]G,, z2 |
[V:1]E C =B, |
[V:2]C C =B, |
[V:3]C E, D, |
[V:4]C, G, G,, |
[V:1]C2 z |]
[V:2]C2 z |]
[V:3]C, z2 |]
[V:4]C, G,, C,, |]

